svgs/sharp-light/file-import.svg

<svg xmlns="http://www.w3.org/2000/svg" viewBox="0 0 512 512"><!--! Font Awesome Pro 6.6.0 by @fontawesome - https://fontawesome.com License - https://fontawesome.com/license (Commercial License) Copyright 2024 Fonticons, Inc. --><path d="M336 192l144 0 0 288-320 0 0-112-32 0 0 112 0 32 32 0 320 0 32 0 0-32 0-328L360 0 160 0 128 0l0 32 0 224 32 0 0-224 160 0 0 144 0 16 16 0zm138.7-32L352 160l0-122.7L474.7 160zM283.3 212.7L272 201.4 249.4 224l11.3 11.3L329.4 304 16 304 0 304l0 32 16 0 313.4 0-68.7 68.7L249.4 416 272 438.6l11.3-11.3 96-96L390.6 320l-11.3-11.3-96-96z"/></svg>

<svg xmlns="http://www.w3.org/2000/svg" viewBox="0 0 512 512"><!--! Font Awesome Pro 6.4.0 by @fontawesome - https://fontawesome.com License - https://fontawesome.com/license (Commercial License) Copyright 2023 Fonticons, Inc. --><path d="M336 192H480V480H160V368H128V480v32h32H480h32V480 152L360 0H160 128V32 256h32V32H320V176v16h16zm138.7-32H352V37.3L474.7 160zM283.3 212.7L272 201.4 249.4 224l11.3 11.3L329.4 304H16 0v32H16 329.4l-68.7 68.7L249.4 416 272 438.6l11.3-11.3 96-96L390.6 320l-11.3-11.3-96-96z"/></svg>
